svg/u1f1ec.svg

<svg viewBox="0 0 128 128" xmlns="http://www.w3.org/2000/svg">
  <path d="m116.6 62.86h-42.62c-0.66 0-1.19 0.53-1.19 1.19v17.83c0 0.31 0.12 0.62 0.35 0.84 0.22 0.22 0.52 0.35 0.84 0.35l13.81-0.02c-1.05 8.39-10.55 15.25-21.49 15.25-16.87 0-27.3-15.5-27.3-29.87 0-14.13 10.21-28.75 27.3-28.75 7.41 0 16.95 4.43 21.88 8.71 0.24 0.21 0.55 0.3 0.86 0.29 0.32-0.02 0.62-0.17 0.82-0.41l15.85-18.29c0.42-0.49 0.38-1.22-0.09-1.66-10.14-9.4-23.74-14.37-39.32-14.37-32.5 0-56.09 22.91-56.09 54.47 0 31.57 23.59 54.48 56.09 54.48 49.01 0 51.49-49.04 51.49-58.87 0-0.64-0.53-1.17-1.19-1.17z" fill="#40C0E7"/>
</svg>

<svg viewBox="0 0 128 128" xmlns="http://www.w3.org/2000/svg">
  <defs/>
  <path d="M116.6,62.86 L73.98,62.86 C73.32,62.86 72.79,63.39 72.79,64.05 L72.79,81.88 C72.79,82.19 72.91,82.5 73.14,82.72 C73.36,82.94 73.66,83.07 73.98,83.07 L87.79,83.05 C86.74,91.44 77.24,98.3 66.3,98.3 C49.43,98.3 39,82.8 39,68.43 C39,54.3 49.21,39.68 66.3,39.68 C73.71,39.68 83.25,44.11 88.18,48.39 C88.42,48.6 88.73,48.69 89.04,48.68 C89.36,48.66 89.66,48.51 89.86,48.27 L105.71,29.98 C106.13,29.49 106.09,28.76 105.62,28.32 C95.48,18.92 81.88,13.95 66.3,13.95 C33.8,13.95 10.21,36.86 10.21,68.42 C10.21,99.99 33.8,122.9 66.3,122.9 C115.31,122.9 117.79,73.86 117.79,64.03 C117.79,63.39 117.26,62.86 116.6,62.86 Z" fill="#40C0E7"/>
</svg>
